images/ctoken-usdt.svg

<svg height="250" viewBox="0 0 250 250" width="250" xmlns="http://www.w3.org/2000/svg" xmlns:xlink="http://www.w3.org/1999/xlink"><linearGradient id="a" gradientTransform="scale(.976562 .972763)" gradientUnits="userSpaceOnUse" x1="96.456398" x2="136.022003" y1="15.5724" y2="234.931"><stop offset="0" stop-color="#27d3a2"/><stop offset="1" stop-color="#9388fd"/></linearGradient><path d="m247.617188 113c6.710937 67.457031-42.75 127.558594-110.46875 134.242188-67.71875 6.683593-128.054688-42.582032-134.765626-110.039063-6.710937-67.457031 42.75-127.558594 110.46875-134.242187 67.71875-6.683594 128.054688 42.582031 134.765626 110.039062zm0 0" fill="#f9fafb"/><path d="m203.222656 219.933594c-18.828125 15.410156-41.824218 24.914062-66.074218 27.308594-32.519532 3.207031-64.988282-6.582032-90.261719-27.21875-25.273438-20.636719-41.28125-50.425782-44.503907-82.820313-2.4023432-24.15625 2.441407-48.480469 13.914063-69.898437 11.476563-21.414063 29.070313-38.960938 50.554687-50.414063 21.488282-11.457031 45.898438-16.308594 70.15625-13.941406 24.253907 2.363281 47.257813 11.839843 66.105469 27.230469l-24.855469 30.203124c-12.851562-10.496093-28.535156-16.957031-45.070312-18.566406-16.539062-1.613281-33.183594 1.695313-47.832031 9.503906-14.652344 7.8125-26.644531 19.773438-34.46875 34.375-7.824219 14.601563-11.128907 31.1875-9.488281 47.65625 2.195312 22.085938 13.109374 42.398438 30.34375 56.46875 17.230468 14.070313 39.367187 20.746094 61.539062 18.558594 16.539062-1.632812 32.214844-8.113281 45.054688-18.621094zm0 0" fill="url(#a)"/><path d="m125 226.269531c56.09375 0 101.5625-45.292969 101.5625-101.167969s-45.46875-101.167968-101.5625-101.167968c-56.089844 0-101.5625 45.292968-101.5625 101.167968s45.472656 101.167969 101.5625 101.167969zm0 0" fill="#fff"/><path d="m134.742188 128.394531v-.011719c-.546876.039063-3.367188.203126-9.652344.203126-5.027344 0-8.550782-.140626-9.796875-.203126v.011719c-19.320313-.847656-33.734375-4.191406-33.734375-8.210937 0-4.003906 14.425781-7.359375 33.734375-8.210938v13.089844c1.261719.089844 4.886719.304688 9.882812.304688 6.003907 0 9.007813-.253907 9.566407-.304688v-13.074219c19.285156.859375 33.660156 4.207031 33.660156 8.210938 0 4.003906-14.386719 7.347656-33.660156 8.210937zm0-17.761719v-11.710937h26.90625v-17.851563h-73.246094v17.851563h26.90625v11.710937c-21.867188 1-38.300782 5.308594-38.300782 10.476563s16.445313 9.476563 38.300782 10.492187v37.53125h19.449218v-37.53125c21.828126-1 38.234376-5.308593 38.234376-10.480468 0-5.15625-16.40625-9.476563-38.234376-10.476563" fill="#283947"/></svg>

<svg xmlns="http://www.w3.org/2000/svg" xmlns:xlink="http://www.w3.org/1999/xlink" width="250px" height="250px" viewBox="0 0 250 250" version="1.1">
<defs>
<linearGradient id="linear0" gradientUnits="userSpaceOnUse" x1="96.456398" y1="15.5724" x2="136.022003" y2="234.931" gradientTransform="matrix(0.976562,0,0,0.972763,0,0)">
<stop offset="0" style="stop-color:rgb(15.294118%,82.745099%,63.529414%);stop-opacity:1;"/>
<stop offset="1" style="stop-color:rgb(57.647061%,53.333336%,99.215686%);stop-opacity:1;"/>
</linearGradient>
</defs>
<g id="surface1">
<path style=" stroke:none;fill-rule:nonzero;fill:rgb(97.647059%,98.039216%,98.431373%);fill-opacity:1;" d="M 247.617188 113 C 254.328125 180.457031 204.867188 240.558594 137.148438 247.242188 C 69.429688 253.925781 9.09375 204.660156 2.382812 137.203125 C -4.328125 69.746094 45.132812 9.644531 112.851562 2.960938 C 180.570312 -3.722656 240.90625 45.542969 247.617188 113 Z M 247.617188 113 "/>
<path style=" stroke:none;fill-rule:nonzero;fill:url(#linear0);" d="M 203.222656 219.933594 C 184.394531 235.34375 161.398438 244.847656 137.148438 247.242188 C 104.628906 250.449219 72.160156 240.660156 46.886719 220.023438 C 21.613281 199.386719 5.605469 169.597656 2.382812 137.203125 C -0.0195312 113.046875 4.824219 88.722656 16.296875 67.304688 C 27.773438 45.890625 45.367188 28.34375 66.851562 16.890625 C 88.339844 5.433594 112.75 0.582031 137.007812 2.949219 C 161.261719 5.3125 184.265625 14.789062 203.113281 30.179688 L 178.257812 60.382812 C 165.40625 49.886719 149.722656 43.425781 133.1875 41.816406 C 116.648438 40.203125 100.003906 43.511719 85.355469 51.320312 C 70.703125 59.132812 58.710938 71.09375 50.886719 85.695312 C 43.0625 100.296875 39.757812 116.882812 41.398438 133.351562 C 43.59375 155.4375 54.507812 175.75 71.742188 189.820312 C 88.972656 203.890625 111.109375 210.566406 133.28125 208.378906 C 149.820312 206.746094 165.496094 200.265625 178.335938 189.757812 Z M 203.222656 219.933594 "/>
<path style=" stroke:none;fill-rule:nonzero;fill:rgb(100%,100%,100%);fill-opacity:1;" d="M 125 226.269531 C 181.09375 226.269531 226.5625 180.976562 226.5625 125.101562 C 226.5625 69.226562 181.09375 23.933594 125 23.933594 C 68.910156 23.933594 23.4375 69.226562 23.4375 125.101562 C 23.4375 180.976562 68.910156 226.269531 125 226.269531 Z M 125 226.269531 "/>
<path style=" stroke:none;fill-rule:nonzero;fill:rgb(15.686275%,22.352941%,27.843139%);fill-opacity:1;" d="M 134.742188 128.394531 L 134.742188 128.382812 C 134.195312 128.421875 131.375 128.585938 125.089844 128.585938 C 120.0625 128.585938 116.539062 128.445312 115.292969 128.382812 L 115.292969 128.394531 C 95.972656 127.546875 81.558594 124.203125 81.558594 120.183594 C 81.558594 116.179688 95.984375 112.824219 115.292969 111.972656 L 115.292969 125.0625 C 116.554688 125.152344 120.179688 125.367188 125.175781 125.367188 C 131.179688 125.367188 134.183594 125.113281 134.742188 125.0625 L 134.742188 111.988281 C 154.027344 112.847656 168.402344 116.195312 168.402344 120.199219 C 168.402344 124.203125 154.015625 127.546875 134.742188 128.410156 Z M 134.742188 110.632812 L 134.742188 98.921875 L 161.648438 98.921875 L 161.648438 81.070312 L 88.402344 81.070312 L 88.402344 98.921875 L 115.308594 98.921875 L 115.308594 110.632812 C 93.441406 111.632812 77.007812 115.941406 77.007812 121.109375 C 77.007812 126.277344 93.453125 130.585938 115.308594 131.601562 L 115.308594 169.132812 L 134.757812 169.132812 L 134.757812 131.601562 C 156.585938 130.601562 172.992188 126.292969 172.992188 121.121094 C 172.992188 115.964844 156.585938 111.644531 134.757812 110.644531 "/>
</g>
</svg>
